resources/svg/battery-4.svg

<svg xmlns="http://www.w3.org/2000/svg" viewBox="0 0 15 15" fill="currentColor"><path fill-rule="evenodd" clip-rule="evenodd" d="M0 11.5C0 12.3284 0.671573 13 1.5 13L11.5 13C12.3284 13 13 12.3284 13 11.5V3.5C13 2.67157 12.3284 2 11.5 2H1.5C0.671572 2 0 2.67157 0 3.5V11.5ZM3 4V11H2V4H3ZM5 4V11H4V4H5ZM7 11V4H6V11H7ZM9 4V11H8V4H9Z" fill="black"/><path d="M15 5V10H14V5H15Z" fill="black"/></svg>

<svg xmlns="http://www.w3.org/2000/svg" viewBox="0 0 15 15" fill="currentColor"><path fill-rule="evenodd" clip-rule="evenodd" d="M0 11.5A1.5 1.5 0 001.5 13h10a1.5 1.5 0 001.5-1.5v-8A1.5 1.5 0 0011.5 2h-10A1.5 1.5 0 000 3.5v8zM3 4v7H2V4h1zm2 0v7H4V4h1zm2 7V4H6v7h1zm2-7v7H8V4h1z" fill="currentColor"/><path d="M15 5v5h-1V5h1z" fill="currentColor"/></svg>
